glass-fragile.svg

<svg fill="currentColor" viewBox="0 0 24 24"><path d="M13 20h5v2H6v-2h5v-6.03c-2.81-.27-5-2.63-5-5.51 0-.31.03-.61.08-.91L7 2h6.54l-1.21 2.41-.54 1.09h2l-1.46 2.91-.54 1.09H14l-1 3.25 2.67-3.66.79-1.09h-2.25l1.46-2.91.54-1.09h-2l1-2H17l.93 5.55c.07.3.07.6.07.91 0 2.88-2.19 5.24-5 5.51z"/></svg>

<svg  viewBox="0 0 24 24" fill="currentColor"><path  d="M13 20H18V22H6V20H11V13.97C8.19 13.7 6 11.34 6 8.46C6 8.15 6.03 7.85 6.08 7.55L7 2H13.54L12.33 4.41L11.79 5.5H13.79L12.33 8.41L11.79 9.5H14L13 12.75L15.67 9.09L16.46 8H14.21L15.67 5.09L16.21 4H14.21L15.21 2H17L17.93 7.55C18 7.85 18 8.15 18 8.46C18 11.34 15.81 13.7 13 13.97V20Z"/></svg>
